X:1
T:The Star of Belle Isle.
F:http://www.folkinfo.org/songs
B:The Penguin Book of Canadian Folk Songs.
S:
M:6/8
L:1/8
K:G
D|F G A c A3/2 G1/2|(A1/2C1/2) D2- D2 (D1/2E1/2)|
w:One eve-ning for plea-sure I ramb-*led To
F G A c A3/2 c1/2|d3- d e3/2 d1/2|
w:view the fair fields all a-lone. It was
A B A E D E|(D1/2C1/2) D2- D (A3/2G1/2)|
w:down by the banks of Loch E-*rin Where
E D (C1/2A,1/2) C D3/2 E1/2|D3 z2||
w:beau-ty and *plea-sure were known. 